<?xml version="1.0" encoding="UTF-8"?>
<map version="1.10" tiledversion="1.12.1" orientation="orthogonal" renderorder="right-down" width="16" height="16" tilewidth="16" tileheight="16" infinite="0" nextlayerid="5" nextobjectid="4">
 <tileset firstgid="1" source="dg_set_1.tsx"/>
 <tileset firstgid="561" source="vase_shine_anim.tsx"/>
 <tileset firstgid="577" source="torch_default_tileset.tsx"/>
 <tileset firstgid="585" source="torch_left_tileset.tsx"/>
 <tileset firstgid="593" source="torch_right_tileset.tsx"/>
 <tileset firstgid="601" source="decoration.tsx"/>
 <layer id="1" name="floor" width="16" height="16">
  <data encoding="csv">
98,98,98,98,98,98,98,98,98,98,98,98,98,98,98,98,
98,98,98,98,98,98,98,98,98,98,98,98,98,98,98,98,
98,98,98,98,98,98,98,98,98,98,98,98,98,98,98,98,
98,98,98,98,98,98,98,98,98,98,98,98,98,98,98,98,
98,226,98,98,98,98,98,98,98,98,98,98,98,98,228,98,
98,226,98,98,98,98,98,98,98,98,98,98,98,98,228,98,
98,226,98,98,98,98,98,98,98,98,98,98,98,98,228,98,
98,226,98,98,98,98,98,98,98,98,98,98,98,98,228,98,
98,226,98,98,98,98,98,98,98,98,98,98,98,98,228,98,
98,226,98,98,98,98,98,98,98,98,98,98,98,98,228,98,
98,226,98,98,98,98,98,98,98,98,98,98,98,98,228,98,
98,226,98,98,98,98,98,98,98,98,98,98,98,98,228,98,
98,226,98,98,98,98,98,98,98,98,98,98,98,98,228,98,
98,226,98,98,98,98,98,98,98,98,98,98,98,98,228,98,
98,98,98,98,98,98,98,98,98,98,98,98,98,98,98,98,
98,98,98,98,98,98,98,98,98,98,98,98,98,98,98,98
</data>
 </layer>
 <layer id="2" name="walls" width="16" height="16">
  <data encoding="csv">
266,266,266,266,266,22,23,24,25,26,266,266,266,266,266,266,
266,266,266,266,266,50,51,52,53,54,266,266,266,266,266,266,
240,290,290,290,296,454,454,454,454,454,293,259,259,259,259,265,
268,0,0,0,0,0,0,0,0,0,0,0,0,0,0,237,
268,0,0,0,0,0,0,0,0,0,0,0,0,0,0,237,
268,0,0,0,622,0,0,0,0,0,622,0,0,0,0,237,
268,0,0,0,0,0,0,0,0,0,0,0,0,0,0,237,
268,0,0,0,622,0,0,0,0,0,622,0,0,0,0,237,
268,0,0,0,0,0,0,0,0,0,0,0,0,0,0,237,
268,0,0,0,622,0,0,0,0,0,622,0,0,0,0,237,
268,0,0,0,0,0,0,0,0,0,0,0,0,0,0,237,
268,0,0,0,622,0,0,0,0,0,622,0,0,0,0,237,
268,0,0,0,0,0,0,0,0,0,0,0,0,0,0,237,
268,0,0,0,622,0,0,0,0,0,622,0,0,0,0,237,
268,0,0,0,0,0,0,0,0,0,0,0,0,0,0,237,
235,206,206,206,206,206,206,206,206,206,206,206,206,206,206,234
</data>
 </layer>
 <layer id="3" name="decoration" width="16" height="16">
  <data encoding="csv">
0,0,0,0,2684354763,0,0,0,0,0,1610612939,0,0,0,0,0,
0,0,0,0,2684354763,0,0,0,0,0,1610612939,0,0,0,0,0,
0,0,0,0,577,0,0,0,0,0,577,0,0,0,0,0,
0,198,199,199,199,199,199,199,199,199,199,199,199,199,200,0,
0,226,0,0,0,0,0,376,0,0,0,0,561,376,228,0,
0,585,0,0,0,0,0,0,0,0,0,0,0,0,593,0,
0,226,376,0,0,0,349,0,0,0,0,0,0,0,228,0,
0,226,0,0,0,0,0,244,0,0,0,350,351,0,228,0,
0,226,561,0,0,0,0,0,0,0,0,378,379,0,228,0,
0,585,0,0,0,0,376,0,0,0,0,0,0,349,593,0,
0,226,0,0,0,0,0,0,0,0,0,0,0,0,228,0,
0,226,0,0,0,0,0,0,0,0,0,0,0,561,228,0,
0,226,0,0,0,0,0,0,0,0,0,0,376,0,228,0,
0,585,376,0,0,0,0,0,0,0,0,0,0,0,593,0,
0,1073742022,1073742023,1073742023,1073742023,1073742023,1073742023,1073742023,1073742023,1073742023,1073742023,1073742023,1073742023,1073742023,1073742024,0,
0,0,0,0,0,0,0,0,0,0,0,0,0,0,0,0
</data>
 </layer>
 <objectgroup id="4" name="entities">
  <object id="1" name="exit" type="exit" x="112" y="32">
   <point/>
  </object>
  <object id="2" name="chest" type="chest" x="112" y="112">
   <point/>
  </object>
  <object id="3" name="spawn" type="spawn" x="112" y="208">
   <point/>
  </object>
 </objectgroup>
</map>
