<?xml version="1.0" encoding="UTF-8"?>
<map version="1.10" tiledversion="1.12.1" orientation="orthogonal" renderorder="right-down" width="16" height="16" tilewidth="16" tileheight="16" infinite="0" nextlayerid="9" nextobjectid="15">
 <tileset firstgid="1" source="dungeon_tileset_ii.tsx"/>
 <tileset firstgid="518" source="decoration.tsx"/>
 <tileset firstgid="540" source="vase_shine_anim.tsx"/>
 <layer id="7" name="abyss" width="16" height="16">
  <data encoding="csv">
513,513,513,513,513,513,513,513,513,513,513,513,513,513,513,513,
513,513,513,513,513,513,513,513,513,513,513,513,513,513,513,513,
0,0,0,0,0,0,0,0,0,0,0,0,0,0,0,0,
0,0,0,0,0,0,0,0,0,0,0,0,0,0,0,0,
0,0,0,0,0,0,0,0,0,0,0,0,0,0,0,0,
0,0,0,0,0,0,0,0,0,0,0,0,0,0,0,0,
0,0,0,0,0,0,0,0,0,0,0,0,0,0,0,0,
0,0,0,0,0,0,0,0,0,0,0,0,0,0,0,0,
0,0,0,0,0,0,0,0,0,0,0,0,0,0,0,0,
0,0,0,0,0,0,0,0,0,0,0,0,0,0,0,0,
0,0,0,0,0,0,0,0,0,0,0,0,0,0,0,0,
0,0,0,0,0,0,0,0,0,0,0,0,0,0,0,0,
0,0,0,0,0,0,0,0,0,0,0,0,0,0,0,0,
0,0,0,0,0,0,0,0,0,0,0,0,0,0,0,0,
0,0,0,0,0,0,0,0,0,0,0,0,0,0,0,0,
0,0,0,0,0,0,0,0,0,0,0,0,0,0,0,0
</data>
 </layer>
 <layer id="1" name="floor" width="16" height="16">
  <data encoding="csv">
0,0,0,0,0,0,0,0,0,0,0,0,0,0,0,0,
0,0,0,0,0,0,0,0,0,0,0,1610613096,3758096744,0,0,0,
347,347,347,347,347,347,347,347,347,347,347,347,347,347,347,347,
347,347,347,347,347,347,347,347,347,347,347,347,347,347,347,347,
347,347,347,347,347,347,347,347,347,347,347,347,347,347,347,347,
347,347,347,347,347,347,347,347,347,347,347,347,347,347,347,347,
347,347,347,347,347,347,347,347,347,347,347,347,347,347,347,347,
347,347,347,347,347,347,347,347,347,347,347,347,347,347,347,347,
347,347,347,347,347,347,347,347,347,347,347,347,347,347,347,347,
347,347,347,347,347,347,347,347,347,347,347,347,347,347,347,347,
347,347,347,347,347,347,347,347,347,347,347,347,347,347,347,347,
347,347,347,347,347,347,347,347,347,347,347,347,347,347,347,347,
347,347,347,347,347,347,347,347,347,347,347,347,347,347,347,347,
347,347,347,347,347,347,347,347,347,347,347,347,347,347,347,347,
347,347,347,347,347,347,347,347,347,347,347,347,347,347,347,347,
347,347,347,347,347,347,347,347,347,347,347,347,347,347,347,347
</data>
 </layer>
 <layer id="2" name="walls" width="16" height="16">
  <data encoding="csv">
0,0,0,0,0,0,0,0,0,0,0,343,0,0,0,0,
510,494,511,494,511,494,511,494,511,494,511,0,0,0,511,512,
472,490,502,490,502,490,502,490,502,490,341,344,0,342,502,475,
506,482,0,482,0,482,0,482,0,482,0,0,0,0,0,474,
506,0,0,0,0,0,0,0,0,0,0,0,0,0,0,474,
506,0,0,0,0,0,0,0,0,0,0,0,0,0,0,474,
506,331,0,0,0,0,0,331,0,0,0,0,0,331,0,474,
506,0,0,0,0,0,0,0,0,0,0,0,0,0,0,474,
506,0,0,0,0,0,0,0,0,0,0,0,0,0,0,474,
506,0,0,0,331,0,0,0,0,0,331,0,0,0,0,474,
506,0,0,0,0,0,0,0,0,0,0,0,0,0,0,474,
506,0,0,0,0,0,0,0,0,0,0,0,0,0,0,474,
506,331,0,0,0,0,0,331,0,0,0,0,0,331,0,474,
506,0,0,0,0,0,0,0,0,0,0,0,0,0,0,474,
470,511,511,511,511,511,511,511,511,511,511,511,511,511,511,471,
501,502,502,502,502,502,502,502,502,502,502,502,502,502,502,509
</data>
 </layer>
 <layer id="8" name="columns" width="16" height="16">
  <data encoding="csv">
0,0,0,0,0,0,0,0,0,0,0,0,0,0,0,0,
0,0,0,0,0,0,0,0,0,0,0,0,0,0,0,0,
0,0,0,0,0,0,0,0,0,0,0,0,0,0,0,0,
0,0,330,0,330,0,330,0,330,0,0,0,0,0,330,0,
0,0,0,0,0,0,0,0,0,0,0,0,0,0,0,0,
0,0,0,0,0,0,0,0,0,0,0,0,0,0,0,0,
0,0,0,0,0,0,0,0,0,0,0,0,0,0,0,0,
0,0,0,0,0,0,0,0,0,0,0,0,0,0,0,0,
0,0,0,0,0,0,0,0,331,0,0,0,0,0,0,0,
0,0,0,0,0,0,0,0,0,0,0,0,0,0,0,0,
0,0,0,0,0,0,0,0,0,0,0,0,0,0,0,0,
0,0,0,0,0,0,0,0,0,0,0,0,0,0,0,0,
0,0,0,0,0,0,0,0,0,0,0,0,0,0,0,0,
0,0,0,0,0,331,0,0,0,0,0,0,0,0,0,0,
0,0,0,0,0,0,0,0,0,0,0,0,0,0,0,0,
0,0,0,0,0,0,0,0,0,0,0,0,0,0,0,0
</data>
 </layer>
 <layer id="3" name="decoration" width="16" height="16">
  <data encoding="csv">
0,0,0,0,0,0,0,0,0,0,0,0,0,0,0,0,
0,0,0,0,0,0,0,0,0,0,0,0,0,0,0,0,
0,0,0,0,0,0,0,0,0,0,518,0,0,518,0,0,
0,0,0,0,0,0,0,0,0,0,0,0,0,0,0,0,
0,0,0,0,0,0,0,0,0,0,0,0,0,0,0,0,
0,534,0,0,540,0,0,534,0,0,540,0,0,534,0,0,
0,0,0,0,0,0,0,0,0,0,0,0,0,0,0,0,
0,0,0,0,0,0,0,0,0,0,0,0,0,0,0,0,
0,540,0,0,534,0,0,0,0,0,534,0,0,540,0,0,
0,0,0,0,0,0,0,0,0,0,0,0,0,0,0,0,
0,0,0,0,0,0,0,0,0,0,0,0,0,0,0,0,
0,534,0,0,540,0,0,534,0,0,540,0,0,534,0,0,
0,0,0,0,0,0,0,0,0,0,0,0,0,0,0,0,
0,0,0,0,0,0,0,0,0,0,0,0,0,0,0,0,
0,0,0,0,0,0,0,0,0,0,0,0,0,0,0,0,
0,0,0,0,0,0,0,0,0,0,0,0,0,0,0,0
</data>
 </layer>
 <layer id="5" name="torches" width="16" height="16">
  <data encoding="csv">
0,0,0,0,0,0,0,0,0,0,0,0,0,0,0,0,
0,0,0,0,0,0,0,0,0,0,0,0,0,0,0,0,
0,0,0,0,0,0,0,0,0,0,0,0,0,0,0,0,
0,0,0,0,0,0,0,0,0,0,0,0,0,0,0,0,
0,0,0,0,0,0,0,0,0,0,0,0,0,0,0,0,
0,0,0,0,0,0,0,0,0,0,0,0,0,0,0,0,
0,0,0,0,0,0,0,0,0,0,0,0,0,0,0,0,
0,0,0,0,0,0,0,0,0,0,0,0,0,0,0,0,
0,0,0,0,0,0,0,0,0,0,0,0,0,0,0,0,
0,0,0,0,0,0,0,0,0,0,0,0,0,0,0,0,
0,0,0,0,0,0,0,0,0,0,0,0,0,0,0,0,
0,0,0,0,0,0,0,534,0,0,0,0,0,0,0,0,
0,0,0,0,0,0,0,0,0,0,0,0,0,0,0,0,
0,0,0,0,0,0,0,0,0,0,0,0,0,0,0,0,
0,0,0,0,0,0,0,0,0,0,0,0,0,0,0,0,
0,0,0,0,0,0,0,0,0,0,0,0,0,0,0,0
</data>
 </layer>
 <objectgroup id="4" name="entities">
  <object id="1" name="door" type="door" x="176" y="32" width="32" height="16"/>
  <object id="4" name="exit" type="exit" x="176" y="16" width="32" height="16"/>
  <object id="2" name="chest" type="chest" x="112" y="128">
   <point/>
  </object>
  <object id="3" name="spawn" type="spawn" x="48" y="208">
   <point/>
  </object>
 </objectgroup>
</map>
