<?xml version="1.0" encoding="UTF-8"?>
<map version="1.10" tiledversion="1.12.1" orientation="orthogonal" renderorder="right-down" width="16" height="16" tilewidth="16" tileheight="16" infinite="0" nextlayerid="6" nextobjectid="4">
 <tileset firstgid="1" source="dungeon_tileset_ii.tsx"/>
 <tileset firstgid="513" source="decoration.tsx"/>
 <tileset firstgid="535" source="dg_set_1.tsx"/>
 <layer id="1" name="floor" width="16" height="16">
  <data encoding="csv">
683,683,683,683,683,683,683,683,683,683,683,683,683,683,683,683,
683,683,683,683,683,683,683,683,683,683,683,683,683,683,683,683,
347,347,347,347,347,347,347,347,347,347,347,347,347,347,347,347,
347,347,347,347,347,347,347,347,347,347,347,347,347,347,347,347,
347,347,347,347,347,347,347,347,347,347,347,347,347,347,347,347,
347,347,347,347,347,347,347,347,347,347,347,347,347,347,347,347,
347,347,347,347,347,347,347,347,347,347,347,347,347,347,347,347,
347,347,347,347,347,347,347,347,347,347,347,347,347,347,347,347,
347,347,347,347,347,347,347,347,347,347,347,347,347,347,347,347,
347,347,347,347,347,347,347,347,347,347,347,347,347,347,347,347,
347,347,347,347,347,347,347,347,347,347,347,347,347,347,347,347,
347,347,347,347,347,347,347,347,347,347,347,347,347,347,347,347,
347,347,347,347,347,347,347,347,347,347,347,347,347,347,347,347,
347,347,347,347,347,347,347,347,347,347,347,347,347,347,347,347,
347,347,347,347,347,347,347,347,347,347,347,347,347,347,347,347,
347,347,347,347,347,347,347,347,347,347,347,347,347,347,347,347
</data>
 </layer>
 <layer id="2" name="walls" width="16" height="16">
  <data encoding="csv">
0,0,0,0,0,0,0,0,0,0,0,343,0,0,0,0,
510,494,511,494,511,494,511,494,511,494,0,0,0,0,511,512,
472,490,502,490,502,490,502,490,502,490,341,344,0,342,502,475,
506,482,0,482,0,482,0,482,0,482,0,0,0,0,0,474,
506,0,0,0,0,0,0,0,0,0,0,0,0,0,0,474,
506,0,0,0,0,0,0,0,0,0,0,0,0,0,0,474,
506,0,0,0,0,0,0,0,0,0,0,0,0,0,0,474,
506,0,0,0,0,0,0,0,0,0,0,0,0,0,0,474,
506,0,0,0,0,0,0,0,0,0,0,0,0,0,0,474,
506,0,0,0,0,0,0,0,0,0,0,0,0,0,0,474,
506,0,0,0,0,0,0,0,0,0,0,0,0,0,0,474,
506,0,0,0,0,0,0,0,0,0,0,0,0,0,0,474,
506,0,0,0,0,0,0,0,0,0,0,0,0,0,0,474,
506,0,0,0,0,0,0,0,0,0,0,0,0,0,0,474,
470,511,511,511,511,511,511,511,511,511,511,511,511,511,511,471,
501,502,502,502,502,502,502,502,502,502,502,502,502,502,502,509
</data>
 </layer>
 <layer id="3" name="decoration" width="16" height="16">
  <data encoding="csv">
0,0,0,0,0,0,0,0,0,0,0,0,0,0,0,0,
0,0,0,0,0,0,0,0,0,0,0,0,0,0,0,0,
0,0,0,0,0,0,0,0,0,0,513,0,0,513,0,0,
0,0,330,0,330,0,330,0,330,0,0,0,0,0,330,0,
0,0,0,0,0,0,0,0,0,0,0,0,0,0,0,0,
0,0,0,0,0,0,0,0,0,0,0,0,0,0,0,0,
0,331,0,0,331,0,0,331,0,0,331,0,0,331,0,0,
0,0,0,0,0,0,0,0,0,0,0,0,0,0,0,0,
0,0,0,0,0,0,0,0,0,0,0,0,0,0,0,0,
0,331,0,0,331,0,0,331,0,0,331,0,0,331,0,0,
0,0,0,0,0,0,0,0,0,0,0,0,0,0,0,0,
0,0,0,0,0,0,0,0,0,0,0,0,0,0,0,0,
0,331,0,0,331,0,0,331,0,0,331,0,0,331,0,0,
0,0,0,0,0,0,0,0,0,0,0,0,0,0,0,0,
0,0,0,0,0,0,0,0,0,0,0,0,0,0,0,0,
0,0,0,0,0,0,0,0,0,0,0,0,0,0,0,0
</data>
 </layer>
 <layer id="5" name="torchs" width="16" height="16">
  <data encoding="csv">
0,0,0,0,0,0,0,0,0,0,0,0,0,0,0,0,
0,0,0,0,0,0,0,0,0,0,0,0,0,0,0,0,
0,0,0,0,0,0,0,0,0,0,0,0,0,0,0,0,
0,0,0,0,0,0,0,0,0,0,0,0,0,0,0,0,
0,0,0,0,0,0,0,0,0,0,0,0,0,0,0,0,
0,529,0,0,0,0,0,529,0,0,0,0,0,529,0,0,
0,0,0,0,0,0,0,0,0,0,0,0,0,0,0,0,
0,0,0,0,0,0,0,0,0,0,0,0,0,0,0,0,
0,0,0,0,529,0,0,0,0,0,529,0,0,0,0,0,
0,0,0,0,0,0,0,0,0,0,0,0,0,0,0,0,
0,0,0,0,0,0,0,0,0,0,0,0,0,0,0,0,
0,529,0,0,0,0,0,529,0,0,0,0,0,529,0,0,
0,0,0,0,0,0,0,0,0,0,0,0,0,0,0,0,
0,0,0,0,0,0,0,0,0,0,0,0,0,0,0,0,
0,0,0,0,0,0,0,0,0,0,0,0,0,0,0,0,
0,0,0,0,0,0,0,0,0,0,0,0,0,0,0,0
</data>
 </layer>
 <objectgroup id="4" name="entities">
  <object id="1" name="exit" type="exit" x="192" y="32">
   <point/>
  </object>
  <object id="2" name="chest" type="chest" x="144" y="112">
   <point/>
  </object>
  <object id="3" name="spawn" type="spawn" x="48" y="208">
   <point/>
  </object>
 </objectgroup>
</map>
