<?xml version="1.0" encoding="UTF-8"?>
<map version="1.10" tiledversion="1.12.1" orientation="orthogonal" renderorder="right-down" width="16" height="16" tilewidth="16" tileheight="16" infinite="0" nextlayerid="7" nextobjectid="13">
 <tileset firstgid="1" source="dungeon_tileset_ii.tsx"/>
 <tileset firstgid="518" source="decoration.tsx"/>
 <tileset firstgid="540" source="columns.tsx"/>
 <tileset firstgid="542" source="vase_shine_anim.tsx"/>
 <layer id="3" name="abyss" width="16" height="16">
  <data encoding="csv">
513,513,513,513,513,513,513,513,513,513,513,513,513,513,513,513,
513,513,513,513,513,513,513,513,513,513,513,513,513,513,513,513,
513,513,513,513,513,513,513,513,513,513,513,513,513,513,513,513,
513,513,513,513,513,513,513,513,513,513,513,513,513,513,513,513,
513,513,513,513,513,513,513,513,513,513,513,513,513,513,513,513,
513,513,513,513,513,513,513,513,513,513,513,513,513,513,513,513,
513,513,513,513,513,513,513,513,513,513,513,513,513,513,513,513,
513,513,513,513,513,513,513,513,513,513,513,513,513,513,513,513,
513,513,513,513,513,513,513,513,513,513,513,513,513,513,513,513,
513,513,513,513,513,513,513,513,513,513,513,513,513,513,513,513,
513,513,513,513,513,513,513,513,513,513,513,513,513,513,513,513,
513,513,513,513,513,513,513,513,513,513,513,513,513,513,513,513,
513,513,513,513,513,513,513,513,513,513,513,513,513,513,513,513,
513,513,513,513,513,513,513,513,513,513,513,513,513,513,513,513,
513,513,513,513,513,513,513,513,513,513,513,513,513,513,513,513,
513,513,513,513,513,513,513,513,513,513,513,513,513,513,513,513
</data>
 </layer>
 <layer id="1" name="floor" width="16" height="16">
  <data encoding="csv">
0,0,0,0,0,0,0,0,0,0,0,0,0,0,0,0,
0,0,0,0,0,0,0,0,0,0,0,0,0,0,0,0,
354,351,351,351,351,351,351,351,351,0,351,351,351,351,351,351,
351,351,348,351,351,350,351,351,351,351,351,351,351,351,360,351,
351,351,351,351,348,351,351,351,351,351,351,352,351,351,360,351,
351,351,351,351,351,0,0,351,351,0,0,0,0,0,0,0,
351,351,348,351,351,351,351,351,348,351,351,497,353,351,351,351,
348,351,351,348,351,351,351,351,351,351,351,351,351,351,351,351,
351,351,351,351,351,351,348,351,351,349,351,351,351,351,351,351,
351,351,351,351,351,351,351,351,351,351,351,351,351,348,351,351,
351,351,351,348,351,351,351,351,351,351,348,351,351,351,351,352,
351,351,351,351,351,351,348,351,348,351,351,351,351,351,351,351,
351,351,351,351,351,351,351,351,351,351,351,351,351,348,351,351,
351,351,351,351,351,351,351,351,351,351,352,350,351,351,351,351,
351,351,351,351,351,351,351,351,351,351,353,354,351,351,351,351,
0,0,0,0,0,351,0,351,0,351,0,0,0,0,0,0
</data>
 </layer>
 <layer id="2" name="walls" width="16" height="16">
  <data encoding="csv">
510,511,511,511,511,511,496,511,511,496,511,511,511,511,511,512,
472,502,502,502,502,502,493,502,502,493,502,502,502,502,502,475,
473,0,0,0,0,506,487,0,0,487,0,0,0,0,0,474,
473,0,0,0,0,506,0,0,0,0,0,0,0,0,0,474,
473,0,0,0,0,506,0,0,0,0,0,0,0,0,0,474,
473,0,0,0,0,472,341,344,0,342,502,498,502,502,502,475,
473,0,0,0,0,472,0,0,0,0,0,0,0,0,0,474,
473,0,510,511,0,472,0,0,0,0,502,0,0,0,0,474,
473,0,480,502,502,472,0,0,0,0,502,0,0,0,0,474,
473,0,0,0,0,472,0,0,0,0,502,0,0,480,502,481,
473,0,0,0,0,472,0,0,0,0,502,0,0,0,0,474,
473,0,0,0,0,472,502,502,0,0,502,0,0,0,0,474,
473,0,0,0,0,0,0,0,0,0,0,0,0,0,0,474,
473,0,0,0,0,0,0,0,0,0,0,0,0,0,0,474,
478,511,511,511,511,511,511,511,511,511,511,511,511,511,511,479,
501,502,502,502,502,502,502,502,502,502,502,502,502,502,502,509
</data>
 </layer>
 <layer id="5" name="columns" width="16" height="16">
  <data encoding="csv">
0,0,0,0,0,0,0,0,0,0,0,0,0,0,0,0,
0,0,0,0,0,0,0,0,0,0,0,0,0,0,0,0,
0,541,0,541,0,0,0,0,0,0,0,0,541,0,541,0,
0,0,0,0,0,0,0,0,0,0,0,0,0,0,0,0,
0,0,0,0,0,0,0,0,0,0,0,0,0,0,0,0,
0,0,0,0,0,0,0,0,0,0,0,0,0,0,0,0,
0,0,0,0,0,0,0,0,0,0,0,0,0,0,0,0,
0,0,0,0,0,0,0,0,0,0,0,0,0,0,0,0,
0,0,0,0,0,0,0,0,0,0,0,0,0,0,0,0,
0,0,0,0,0,0,0,0,0,0,0,0,0,0,0,0,
0,0,0,0,0,0,0,0,0,0,0,0,0,0,0,0,
0,0,0,0,0,0,0,0,0,0,0,0,0,0,0,0,
0,0,0,0,0,0,0,0,0,0,0,0,0,0,0,0,
0,0,0,0,0,0,0,0,0,0,0,0,0,0,0,0,
0,0,0,0,0,0,0,0,0,0,0,0,0,0,0,0,
0,0,0,0,0,0,0,0,0,0,0,0,0,0,0,0
</data>
 </layer>
 <layer id="4" name="decoration" width="16" height="16">
  <data encoding="csv">
0,0,0,0,0,0,0,0,0,0,0,0,0,0,0,0,
0,0,534,0,518,480,0,0,0,0,0,518,0,534,0,0,
0,0,0,0,0,0,0,542,542,0,0,0,0,450,0,0,
0,0,0,0,0,0,0,343,0,0,0,0,0,0,0,0,
0,0,0,542,0,470,0,0,0,0,511,511,511,511,511,471,
0,0,0,0,0,0,534,0,0,534,0,0,0,0,0,0,
0,0,0,0,0,0,0,0,0,507,511,508,0,0,0,0,
0,0,0,0,511,0,0,0,0,474,0,473,0,0,0,0,
0,0,0,0,502,0,0,0,0,474,0,473,0,510,511,479,
0,0,0,0,0,0,0,0,0,474,0,473,0,510,511,511,
0,0,0,0,0,0,0,0,0,474,0,473,0,0,0,0,
0,0,0,0,0,478,511,511,0,474,511,473,0,0,0,0,
0,0,0,0,0,0,0,0,0,0,0,0,0,0,0,0,
0,0,0,0,0,0,0,0,0,0,0,0,0,0,0,0,
0,0,0,0,0,0,0,0,0,0,0,0,0,0,0,0,
0,0,0,0,0,0,0,0,0,0,0,0,0,0,0,0
</data>
 </layer>
 <objectgroup id="6" name="entities">
  <object id="1" name="chest" type="chest" x="32" y="32">
   <properties>
    <property name="drops" value="coin"/>
   </properties>
   <point/>
  </object>
  <object id="2" name="spawn" type="spawn" x="48" y="208">
   <point/>
  </object>
  <object id="3" name="door" type="door" x="112" y="80" width="32" height="16"/>
  <object id="4" name="exit" type="exit" x="224" y="48" width="16" height="32"/>
  <object id="5" name="coin bag" x="160" y="48">
   <properties>
    <property name="kind" value="coin_bag"/>
   </properties>
   <point/>
  </object>
  <object id="6" name="big_health_potion" type="item" x="192" y="48">
   <properties>
    <property name="kind" value="big_potion"/>
   </properties>
   <point/>
  </object>
  <object id="7" name="big_shield_potion" type="item" x="192" y="128">
   <properties>
    <property name="kind" value="big_shield_potion"/>
   </properties>
   <point/>
  </object>
  <object id="8" name="zombie1" type="enemy" x="112" y="112">
   <properties>
    <property name="kind" value="zombie"/>
   </properties>
   <point/>
  </object>
  <object id="10" name="zombie2" type="enemy" x="224" y="192">
   <properties>
    <property name="kind" value="zombie"/>
   </properties>
   <point/>
  </object>
  <object id="11" name="chest2" type="chest" x="224" y="224">
   <properties>
    <property name="drops" value="key"/>
   </properties>
   <point/>
  </object>
  <object id="12" name="zombie3" type="enemy" x="48" y="96">
   <properties>
    <property name="kind" value="zombie"/>
   </properties>
   <point/>
  </object>
 </objectgroup>
</map>
