<?xml version="1.0" encoding="UTF-8"?>
<map version="1.10" tiledversion="1.12.1" orientation="orthogonal" renderorder="right-down" width="16" height="16" tilewidth="16" tileheight="16" infinite="0" nextlayerid="7" nextobjectid="11">
 <tileset firstgid="1" source="dungeon_tileset_ii.tsx"/>
 <tileset firstgid="518" source="decoration.tsx"/>
 <tileset firstgid="540" source="vase_shine_anim.tsx"/>
 <layer id="1" name="abyss" width="16" height="16">
  <data encoding="csv">
513,513,513,513,513,513,513,513,513,513,513,513,513,513,513,513,
513,513,513,513,513,513,513,513,513,513,513,513,513,513,513,513,
513,513,513,513,513,513,513,513,513,513,513,513,513,513,513,513,
513,513,513,513,513,513,513,513,513,513,513,513,513,513,513,513,
513,513,513,513,513,513,513,513,513,513,513,513,513,513,513,513,
513,513,513,513,513,513,513,513,513,513,513,513,513,513,513,513,
513,513,513,513,513,513,513,513,513,513,513,513,513,513,513,513,
513,513,513,513,513,513,513,513,513,513,513,513,513,513,513,513,
513,513,513,513,513,513,513,513,513,513,513,513,513,513,513,513,
513,513,513,513,513,513,513,513,513,513,513,513,513,513,513,513,
513,513,513,513,513,513,513,513,513,513,513,513,513,513,513,513,
513,513,513,513,513,513,513,513,513,513,513,513,513,513,513,513,
513,513,513,513,513,513,513,513,513,513,513,513,513,513,513,513,
513,513,513,513,513,513,513,513,513,513,513,513,513,513,513,513,
513,513,513,513,513,513,513,513,513,513,513,513,513,513,513,513,
513,513,513,513,513,513,513,513,513,513,513,513,513,513,513,513
</data>
 </layer>
 <layer id="2" name="floor" width="16" height="16">
  <data encoding="csv">
347,347,347,347,347,347,347,347,347,347,347,347,347,347,347,347,
347,349,347,347,349,353,347,347,347,347,347,352,350,352,348,347,
347,347,347,347,347,347,347,347,347,352,347,353,354,347,355,347,
347,349,349,347,347,347,347,347,347,349,347,347,347,347,347,347,
347,347,347,347,347,349,497,347,347,347,347,347,347,347,347,347,
354,347,349,350,347,347,347,347,347,347,347,347,347,347,347,353,
347,349,347,347,347,349,347,347,349,347,349,347,347,347,349,347,
347,347,347,347,347,347,347,347,347,349,347,347,347,347,347,347,
347,347,347,347,349,354,347,347,347,347,347,347,347,347,347,347,
347,349,347,347,347,347,347,349,347,347,347,349,347,347,349,347,
350,347,347,347,347,347,347,347,347,347,347,347,347,347,349,347,
347,347,347,349,347,347,347,347,347,347,347,347,347,347,347,347,
347,347,347,350,347,347,354,347,347,347,347,347,347,347,347,352,
347,347,347,347,347,347,347,347,347,349,347,347,347,347,347,347,
347,347,347,347,347,347,347,347,347,347,347,347,347,347,347,347,
347,347,347,347,347,347,347,347,347,347,347,347,347,347,347,347
</data>
 </layer>
 <layer id="3" name="walls" width="16" height="16">
  <data encoding="csv">
480,502,502,502,502,502,502,502,502,502,480,499,502,502,502,481,
506,0,0,0,0,0,0,0,0,0,506,0,0,0,0,474,
506,0,0,0,369,0,0,0,0,0,506,0,0,0,0,474,
506,0,0,472,502,502,498,502,0,0,478,0,0,0,0,474,
506,0,0,473,0,0,0,0,0,0,501,341,344,0,342,481,
506,0,0,473,0,0,0,0,0,0,0,0,0,0,0,474,
506,0,0,478,0,0,0,0,0,0,0,0,0,0,0,474,
506,0,0,502,502,499,502,502,0,0,0,0,0,0,0,474,
506,0,0,0,0,0,0,0,0,0,0,0,0,369,0,474,
506,0,0,0,0,0,0,0,0,0,0,0,0,0,0,474,
506,0,480,502,502,481,0,0,0,0,0,0,0,0,0,474,
506,0,480,0,0,481,0,0,0,0,0,0,0,0,0,474,
506,0,480,0,0,481,0,0,0,0,0,0,0,0,0,474,
506,0,0,0,0,0,0,0,0,0,0,0,0,0,0,474,
478,0,0,0,0,0,0,0,0,0,0,0,0,0,0,479,
501,502,502,502,502,502,502,502,502,502,502,502,502,502,502,509
</data>
 </layer>
 <layer id="6" name="decoration" width="16" height="16">
  <data encoding="csv">
1073742302,1073742335,1073742335,1073742335,1073742335,1073742335,1073742335,1073742335,1073742335,1073742335,1073742294,1073742335,1073742335,1073742335,1073742335,1073742303,
0,0,330,0,0,0,330,0,540,330,0,0,0,330,0,0,
0,540,0,510,511,511,511,511,0,0,0,0,343,0,0,0,
0,0,0,0,0,0,0,0,0,0,0,0,0,0,0,479,
0,0,0,0,0,0,0,0,0,0,0,534,0,0,534,0,
0,0,0,0,0,0,0,0,0,0,0,0,0,0,0,0,
0,0,0,0,511,511,511,511,0,0,0,0,0,0,0,0,
0,0,0,0,0,0,0,534,0,0,0,540,0,0,0,0,
0,0,0,330,0,0,0,0,0,0,0,0,0,0,0,0,
0,0,0,0,0,0,0,0,0,0,0,0,0,0,0,0,
0,0,1073742302,1073742335,1073742335,1073742303,0,0,540,0,0,0,0,0,0,0,
0,0,0,0,0,0,0,0,0,0,0,0,0,0,0,0,
0,0,478,0,0,479,0,0,0,0,0,0,0,0,0,0,
0,0,0,0,0,0,0,0,0,0,0,0,0,0,0,0,
0,511,511,511,511,511,511,511,511,511,511,511,511,511,511,0,
0,0,0,0,0,0,0,0,0,0,0,0,0,0,0,0
</data>
 </layer>
 <layer id="4" name="columns" width="16" height="16">
  <data encoding="csv">
0,0,0,0,0,0,0,0,0,0,0,0,0,0,0,0,
0,0,0,0,0,0,0,0,0,0,0,0,0,0,0,0,
0,0,0,0,0,0,0,0,0,0,0,0,0,0,0,0,
0,0,0,0,0,0,0,0,0,0,0,0,0,0,0,0,
0,0,0,0,0,0,0,0,0,0,0,0,0,0,0,0,
0,0,0,0,0,0,0,0,0,0,0,0,0,0,0,0,
0,0,0,0,0,0,0,0,0,0,0,0,0,0,0,0,
0,0,0,0,0,0,0,0,0,0,0,0,0,0,0,0,
0,0,0,0,0,0,0,0,0,0,0,0,0,0,0,0,
0,0,0,0,0,0,0,0,0,0,0,0,0,0,0,0,
0,0,0,0,0,0,0,0,0,0,0,0,0,0,0,0,
0,0,0,0,0,0,0,0,0,0,0,0,0,0,0,0,
0,0,0,0,0,0,0,0,0,0,0,0,0,0,0,0,
0,0,0,0,0,0,0,0,0,0,0,0,0,0,0,0,
0,0,0,0,0,0,0,0,0,0,0,0,0,0,0,0,
0,0,0,0,0,0,0,0,0,0,0,0,0,0,0,0
</data>
 </layer>
 <objectgroup id="5" name="entities">
  <object id="1" name="spawn" type="spawn" x="16" y="224">
   <point/>
  </object>
  <object id="2" name="chest" type="chest" x="64" y="80">
   <properties>
    <property name="drops" value="key"/>
   </properties>
   <point/>
  </object>
  <object id="3" name="zombie1" type="enemy" x="96" y="80">
   <properties>
    <property name="kind" value="zombie"/>
   </properties>
   <point/>
  </object>
  <object id="4" name="zombie2" type="enemy" x="192" y="192">
   <properties>
    <property name="kind" value="zombie"/>
   </properties>
   <point/>
  </object>
  <object id="5" name="health_potion_big" type="item" x="48" y="192">
   <properties>
    <property name="kind" value="big_potion"/>
   </properties>
   <point/>
  </object>
  <object id="6" name="coin_bag" type="item" x="64" y="192">
   <properties>
    <property name="kind" value="coin_bag"/>
   </properties>
   <point/>
  </object>
  <object id="7" name="door" type="door" x="192" y="64" width="32" height="16"/>
  <object id="8" name="exit" x="224" y="32" width="16" height="16"/>
  <object id="9" name="shield_pot" type="item" x="192" y="32">
   <properties>
    <property name="kind" value="big_shield_potion"/>
   </properties>
   <point/>
  </object>
  <object id="10" name="zombie3" type="enemy" x="160" y="96">
   <properties>
    <property name="kind" value="zombie"/>
   </properties>
   <point/>
  </object>
 </objectgroup>
</map>
